X: 41885
T: Volcanic
R: jig
M: 6/8
K: Gmajor
f|:gfe Bcd|dcB c2 B|AFd cBA|BeB ^def|
gfe Bcd|dcB c2 B|AcB AGF|G3 G2 f:|
|:ga B2 eg|age deg|ab c2 eg|abg age|
gf d2 A^c|def fed|cde edc|1 Bcd def:|2 Bcd dcB||
|:ADA BDB|AFD D2 B|ABG ABc|d3 dcB|
[1ADA BDB|AFD DBc|dcB cBG|A3 A2 B:|
[2ABG ABc|cdB cde|efd efg|gaf gab||
|:BbB aBg|BfB edB|GeG dGc|GBG cBG|
cgc gac|cgc gac|BeB gfe|BfB agf:|

